src/icons/solid/symbols/payment.svg

<svg width="24" height="24" viewBox="0 0 24 24" fill="none" xmlns="http://www.w3.org/2000/svg">
<g clip-path="url(#clip0_6020_993)">
<path d="M20.9196 4H3.0804C1.55276 4 1 5.20792 1 6.0198V17.9802C1 19.4554 2.24623 20 3.0804 20H20.9196C22.4472 20 23 18.7921 23 17.9802V6.0198C23 4.53465 21.7538 4 20.9196 4ZM8.8593 17.5347H4.05528C3.66332 17.5347 3.35176 17.2277 3.35176 16.8416C3.35176 16.4554 3.66332 16.1584 4.05528 16.1584H8.8593C9.25126 16.1584 9.56281 16.4653 9.56281 16.8416C9.56281 17.2178 9.25126 17.5347 8.8593 17.5347ZM21.3618 10.9208H2.40703V8.15842H21.3618C21.4422 8.15842 21.5226 8.16832 21.593 8.17822V10.901C21.5226 10.9109 21.4422 10.9208 21.3618 10.9208Z" fill="#3C3B44"/>
</g>
<defs>
<clipPath id="clip0_6020_993">
<rect width="24" height="24" fill="white"/>
</clipPath>
</defs>
</svg>

<svg xmlns="http://www.w3.org/2000/svg" width="24" height="24" fill="none" viewBox="0 0 24 24"><g clip-path="url(#a)"><path fill="currentColor" d="M20.92 4H3.08C1.553 4 1 5.208 1 6.02v11.96C1 19.455 2.246 20 3.08 20h17.84c1.527 0 2.08-1.208 2.08-2.02V6.02C23 4.535 21.754 4 20.92 4M8.86 17.535H4.054a.694.694 0 0 1-.703-.693c0-.387.311-.684.703-.684H8.86c.392 0 .704.307.704.684a.7.7 0 0 1-.704.693m12.502-6.614H2.407V8.158h18.955c.08 0 .16.01.231.02v2.723c-.07.01-.15.02-.231.02"/></g><defs><clipPath id="a"><path fill="currentColor" d="M0 0h24v24H0z"/></clipPath></defs></svg>
